X: 62
T: Davy-Davy Knick-Knack
B: begged borrowed and stolen
B: nick
B: steve tunes
M:4/4
L:1/8
R: reel
Q: 1/4=100
K:Gmajor
V:1 
D2|:GF GA B2 B2|GF GA B2 B2|dc Bc A2 A2|dc Bc A2 A2|
 GF GA B2 B2|GF GA B2 B2|dc Bc Ac BA|1 G2 B2 G2 D2:|2 G2 B2 G2 B2||
 |:d3 c B2 d2|g2 g2 d2 z2|dc Bc A2 A2|dc Bc A2 A2|
 d3 c B2 d2|g2 g2 d2 z2|dc Bc Ac BA|1 G2 B2 G2 B2:|2 G2 B2 G2||
% abcbook-tune_id 62828a3aeeccbd9d13faf714


% abcbook-boost 0
% abcbook-tablature 
% abcbook-transpose 
% abcbook-lastupdated 1665490945508
% abcbook-soundfonts 
% abcbook-repeats 3
% abc-sessionorg_id 3697
% abc-sessionorg_setting 0
% abc-sessionorg_setting_id 3697
% abc-boost 0

